icons/workflow-manager-server-16.svg

<?xml version="1.0" encoding="UTF-8"?><svg id="icons" xmlns="http://www.w3.org/2000/svg" viewBox="0 0 16 16"><path d="M3,3h1v1h-1v-1Zm2,1h1v-1h-1v1Zm2,0h1v-1h-1v1ZM15,1V6H2v3H7v1H1V1H15Zm-1,1H2v3H14V2ZM3,7v1h1v-1h-1Zm2,0v1h1v-1h-1Zm7,6l1.5,1.5-1.5,1.5-1-1h-1c-.54999,0-1-.45001-1-1v-1h-1v-2h1v-1.0921c-.58069-.20709-1-.75696-1-1.4079,0-.82709,.67291-1.5,1.5-1.5s1.5,.67291,1.5,1.5c0,.65094-.41931,1.20081-1,1.4079v1.0921h1v2h-1v1h1l1-1Zm-2-4v-1h-1v1h1Zm5-1h-1.08594l.29297-.29297-.70703-.70703-1.5,1.5,1.5,1.5,.70703-.70703-.29297-.29297h1.08594v5h-1v1h1c.55231,0,1-.44775,1-1v-5c0-.55231-.44769-1-1-1Z"/><path fill="none" d="M0 0h16v16H0z"/></svg>

<svg xmlns="http://www.w3.org/2000/svg" viewBox="0 0 16 16"><path d="M3 3h1v1H3V3zm2 1h1V3H5v1zm2 0h1V3H7v1zm8-3v5H2v3h5v1H1V1h14zm-1 1H2v3h12V2zM3 7v1h1V7H3zm2 0v1h1V7H5zm7 6l1.5 1.5L12 16l-1-1h-1c-.55 0-1-.45-1-1v-1H8v-2h1V9.908A1.5 1.5 0 0 1 8 8.5C8 7.673 8.673 7 9.5 7s1.5.673 1.5 1.5c0 .65-.42 1.2-1 1.408V11h1v2h-1v1h1l1-1zm-2-4V8H9v1h1zm5-1h-1.086l.293-.293L13.5 7 12 8.5l1.5 1.5.707-.707L13.914 9H15v5h-1v1h1a1 1 0 0 0 1-1V9a1 1 0 0 0-1-1z"/><path fill="none" d="M0 0h16v16H0z"/></svg>
